www/assets/icons/phonelink_setup.svg

<svg width="24" height="24" viewBox="0 0 24 24" xmlns="http://www.w3.org/2000/svg" fill='currentColor'><path d="M11.8204 12.49C11.8404 12.33 11.8604 12.17 11.8604 12C11.8604 11.83 11.8404 11.67 11.8204 11.51L12.9004 10.69C13.0004 10.62 13.0204 10.48 12.9604 10.37L11.9304 8.64C11.8704 8.53 11.7304 8.49 11.6204 8.53L10.3404 9.03C10.0704 8.83 9.78042 8.67 9.47042 8.54L9.27042 7.21C9.27042 7.09 9.16042 7 9.03042 7H6.98042C6.85042 7 6.74042 7.09 6.72042 7.21L6.52042 8.53C6.21042 8.65 5.92042 8.83 5.65042 9.02L4.37042 8.52C4.25042 8.47 4.12042 8.52 4.06042 8.63L3.03042 10.36C2.97042 10.48 3.00042 10.61 3.10042 10.69L4.18042 11.51C4.16042 11.67 4.15042 11.84 4.15042 12C4.15042 12.17 4.17042 12.33 4.19042 12.49L3.10042 13.32C3.00042 13.39 2.98042 13.53 3.04042 13.64L4.07042 15.37C4.13042 15.48 4.27042 15.52 4.38042 15.48L5.66042 14.98C5.93042 15.18 6.22042 15.34 6.53042 15.47L6.73042 16.79C6.74042 16.91 6.85042 17 6.98042 17H9.04042C9.17042 17 9.28042 16.91 9.29042 16.79L9.49042 15.47C9.80042 15.35 10.0904 15.17 10.3604 14.98L11.6404 15.48C11.7604 15.53 11.8904 15.48 11.9504 15.37L12.9804 13.64C13.0404 13.53 13.0204 13.4 12.9204 13.32L11.8204 12.49ZM8.00042 13.75C7.01042 13.75 6.20042 12.97 6.20042 12C6.20042 11.03 7.01042 10.25 8.00042 10.25C8.99042 10.25 9.80042 11.03 9.80042 12C9.80042 12.97 9.00042 13.75 8.00042 13.75ZM19.0004 1.01L9.00042 1C7.90042 1 7.00042 1.9 7.00042 3V6H9.00042V5H19.0004V19H9.00042V18H7.00042V21C7.00042 22.1 7.90042 23 9.00042 23H19.0004C20.1004 23 21.0004 22.1 21.0004 21V3C21.0004 1.9 20.1004 1.01 19.0004 1.01Z"/></svg>

<svg xmlns="http://www.w3.org/2000/svg" width="24" height="24" viewBox="0 0 24 24" fill='currentColor'><path d="M11.82 12.49c.02-.16.04-.32.04-.49s-.02-.33-.04-.49l1.08-.82c.1-.07.12-.21.06-.32l-1.03-1.73c-.06-.11-.2-.15-.31-.11l-1.28.5c-.27-.2-.56-.36-.87-.49l-.2-1.33c0-.12-.11-.21-.24-.21H6.98a.26.26 0 0 0-.26.21l-.2 1.32c-.31.12-.6.3-.87.49l-1.28-.5c-.12-.05-.25 0-.31.11l-1.03 1.73c-.06.12-.03.25.07.33l1.08.82c-.02.16-.03.33-.03.49 0 .17.02.33.04.49l-1.09.83c-.1.07-.12.21-.06.32l1.03 1.73c.06.11.2.15.31.11l1.28-.5c.27.2.56.36.87.49l.2 1.32c.01.12.12.21.25.21h2.06c.13 0 .24-.09.25-.21l.2-1.32c.31-.12.6-.3.87-.49l1.28.5c.12.05.25 0 .31-.11l1.03-1.73c.06-.11.04-.24-.06-.32zM8 13.75c-.99 0-1.8-.78-1.8-1.75s.81-1.75 1.8-1.75 1.8.78 1.8 1.75S9 13.75 8 13.75M19 1.01 9 1c-1.1 0-2 .9-2 2v3h2V5h10v14H9v-1H7v3c0 1.1.9 2 2 2h10c1.1 0 2-.9 2-2V3c0-1.1-.9-1.99-2-1.99"/></svg>
